common/src/main/resources/icons/ide/hectorOn.svg

<!--
  - The MIT License (MIT)
  -
  - Copyright (c) 2015-2024 Elior "Mallowigi" Boukhobza
  -
  - Permission is hereby granted, free of charge, to any person obtaining a copy
  - of this software and associated documentation files (the "Software"), to deal
  - in the Software without restriction, including without limitation the rights
  - to use, copy, modify, merge, publish, distribute, sublicense, and/or sell
  - copies of the Software, and to permit persons to whom the Software is
  - furnished to do so, subject to the following conditions:
  -
  - The above copyright notice and this permission notice shall be included in all
  - copies or substantial portions of the Software.
  -
  - THE SOFTWARE IS PROVIDED "AS IS", WITHOUT WARRANTY OF ANY KIND, EXPRESS OR
  - IMPLIED, INCLUDING BUT NOT LIMITED TO THE WARRANTIES OF MERCHANTABILITY,
  - FITNESS FOR A PARTICULAR PURPOSE AND NONINFRINGEMENT. IN NO EVENT SHALL THE
  - AUTHORS OR COPYRIGHT HOLDERS BE LIABLE FOR ANY CLAIM, DAMAGES OR OTHER
  - LIABILITY, WHETHER IN AN ACTION OF CONTRACT, TORT OR OTHERWISE, ARISING FROM,
  - OUT OF OR IN CONNECTION WITH THE SOFTWARE OR THE USE OR OTHER DEALINGS IN THE
  - SOFTWARE.
  -->
<svg data-big="true" xmlns="http://www.w3.org/2000/svg" width="16" height="16" viewBox="0 0 16 16">
  <g fill="none" fill-rule="evenodd">
    <path fill="#6E6E6E" data-themed="true"
          d="M4.8,7.69 L4.145454,7.69 C4.0098935,7.69 3.9,7.7998935 3.9,7.935454 L3.9,8.135455 C3.9,8.2710155 4.0098935,8.380909 4.145454,8.380909 L4.8,8.380909 L4.8,8.85000016 C4.8,10.5344686 6.16553149,11.9000001 7.84999995,11.9000001 L8.15000005,11.9000001 C9.83446851,11.9000001 11.2,10.5344686 11.2,8.85000016 L11.2,8.380909 L11.854546,8.380909 C11.9901065,8.380909 12.1,8.2710155 12.1,8.135455 L12.1,7.935454 C12.1,7.7998935 11.9901065,7.69 11.854546,7.69 L11.2,7.69 L11.2,6 L4.8,6 L4.8,7.69 Z M5.38307629,11.8849325 C4.53973431,11.2067678 4,10.1664148 4,9.00000011 L4,8.98181812 L3.7,8.98181812 C3.42385763,8.98181812 3.2,8.75796049 3.2,8.48181812 L3.2,7.590909 C3.2,7.31476663 3.42385763,7.090909 3.7,7.090909 L4.00301264,7.090909 C4.00100861,7.01201673 4,6.92761364 4,6.83703636 L4,6 L2,6 L2,4.8 L4,4.8 L4,3.43569091 C4,2.58874812 4.08818433,2.2816262 4.25377607,1.97199657 C4.4193678,1.66236694 4.66236694,1.4193678 4.97199657,1.25377607 C5.2816262,1.08818433 5.58874812,1 6.43569091,1 L9.56430909,1 C10.4112519,1 10.7183738,1.08818433 11.0280034,1.25377607 C11.3376331,1.4193678 11.5806322,1.66236694 11.7462239,1.97199657 C11.9118157,2.2816262 12,2.58874812 12,3.43569091 L12,4.8 L14,4.8 L14,6 L12,6 L12,6.83703636 C12,6.92761364 11.9989914,7.01201673 11.9969874,7.090909 L12.3,7.090909 C12.5761424,7.090909 12.8,7.31476663 12.8,7.590909 L12.8,8.48181812 C12.8,8.75796049 12.5761424,8.98181812 12.3,8.98181812 L12,8.98181812 L12,9.00000011 C12,10.1664148 11.4602657,11.2067678 10.6169237,11.8849325 C12.8742,12.383315 13.4,13.4997017 13.4,14 L2.6,14 C2.6,13.4997017 3.12579999,12.383315 5.38307629,11.8849325 Z"/>
    <circle cx="6.7" cy="7.7" r="0.7" fill="#6E6E6E" data-themed="true"/>
    <circle cx="9.3" cy="7.7" r="0.7" fill="#6E6E6E" data-themed="true"/>
    <path fill="#6E6E6E" data-themed="true"
          d="M6.24247506,9.83702512 L6.75752494,9.36297488 C7.12274297,9.75977988 7.52911358,9.95 7.99542236,9.95 C8.46242542,9.95 8.87264767,9.75914539 9.24414883,9.36116914 L9.75585117,9.83883086 C9.25610833,10.3741879 8.66327883,10.65 7.99542236,10.65 C7.32687164,10.65 6.736294,10.3735535 6.24247506,9.83702512 Z"/>
  </g>
</svg>

<svg xmlns="http://www.w3.org/2000/svg" width="16" height="16" data-big="true"><g fill="#6E6E6E" fill-rule="evenodd"><path d="M4.8 7.69h-.655a.245.245 0 0 0-.245.245v.2c0 .136.11.246.245.246H4.8v.469a3.05 3.05 0 0 0 3.05 3.05h.3a3.05 3.05 0 0 0 3.05-3.05v-.47h.655c.135 0 .245-.109.245-.245v-.2a.245.245 0 0 0-.245-.245H11.2V6H4.8zm.583 4.195A3.7 3.7 0 0 1 4 9v-.018h-.3a.5.5 0 0 1-.5-.5V7.59a.5.5 0 0 1 .5-.5h.303L4 6.837V6H2V4.8h2V3.436c0-.847.088-1.154.254-1.464.165-.31.408-.553.718-.718.31-.166.617-.254 1.464-.254h3.128c.847 0 1.154.088 1.464.254.31.165.553.408.718.718.166.31.254.617.254 1.464V4.8h2V6h-2v.837q0 .135-.003.254h.303a.5.5 0 0 1 .5.5v.89a.5.5 0 0 1-.5.5H12V9c0 1.166-.54 2.207-1.383 2.885C12.874 12.383 13.4 13.5 13.4 14H2.6c0-.5.526-1.617 2.783-2.115" data-themed="true"/><circle cx="6.7" cy="7.7" r=".7" data-themed="true"/><circle cx="9.3" cy="7.7" r=".7" data-themed="true"/><path d="m6.242 9.837.516-.474c.365.397.771.587 1.237.587s.878-.19 1.25-.589l.51.478c-.499.535-1.092.811-1.76.811s-1.259-.276-1.753-.813" data-themed="true"/></g></svg>
